X: 7571
T: Cockles And Mussels
R: waltz
M: 3/4
K: Gmajor
L:1/4
D|GGG|G/B3/2G|AAA|A/c3/2A|BAG|dcB|BAG|A2D|:GGG|
G/B3/2G|AAA|A/c3/2A|B/d3/2c|B/d3/2c|1 B3/2G/A|G2D:|2 B3/2G/A|G2||

